!!!OTL: FREUND ICH BIN ZUFRUEDEN GEH ES WIE ES WILL
!!!ARE: Europa, Mitteleuropa, Deutschland, Rheinland; Nassau
!!!SCT: B0287
!!!YEM: Copyright 1995, estate of Helmut Schaffrath.
**kern
*ICvox
*Ivox
*M6/8
*k[b-]
*F:
=1
{4cc
8cc
8dd
8cc
8cc
=2
4.a
4.f}
=3
{4g
8g
4cc
8cc
=4
4.a
4.r}
=5
{4cc
8cc
8dd
8cc
8cc
=6
4.a
4.f}
=7
{4g
8g
4cc
8e
=8
4.f
4.r}
=9
{4g
8g
8g
8a
8bn
=10
4.cc
4.ee}
=11
{4dd
8dd
8ff
8dd
8bn
=12
4.cc
4.r}
=13
{4cc
8cc
8dd
8cc
8cc
=14
4.ff
4.dd}
=15
{4cc
8cc
8cc
8b-
8g
=16
4.f
4.r}
==
!!!AGN: Stimmungs - Lied, Freude, Zufriedenheit
!!!ONB: ESAC (Essen Associative Code) Database: BOEHME
!!!AMT: compound duple
!!!AIN: vox
!!!EED: Helmut Schaffrath
!!!EEV: 1.0
*-
